kora-light/actions/scalable/focus-legacy-systray.svg

<svg xmlns="http://www.w3.org/2000/svg" style="fill-rule:evenodd;clip-rule:evenodd;stroke-linejoin:round;stroke-miterlimit:2" width="100%" height="100%" version="1.1" viewBox="0 0 16 16" xml:space="preserve">
 <defs>
  <style id="current-color-scheme" type="text/css">
   .ColorScheme-Text { color:#444444; } .ColorScheme-Highlight { color:#4285f4; } .ColorScheme-NeutralText { color:#ff9800; } .ColorScheme-PositiveText { color:#4caf50; } .ColorScheme-NegativeText { color:#f44336; }
  </style>
 </defs>
 <path style="fill:currentColor;fill-opacity:0.3" class="ColorScheme-Text" d="M0,2l0,12l10,0l0,-10c0,-2 -2,-2 -2,-2l-8,0Z"/>
 <path style="fill:currentColor;" class="ColorScheme-Text" d="M10,2c0,0 1,0 1,2l0,10l1,0l0,-10c0,-2 -2,-2 -2,-2Z"/>
 <path style="fill:currentColor;" class="ColorScheme-Text" d="M12,2c0,0 1,0 1,2l0,10l1,0l0,-10c0,-2 -2,-2 -2,-2Z"/>
 <path style="fill:currentColor;" class="ColorScheme-Text" d="M3,5l4.5,3l-4.5,3l0,-6Z"/>
</svg>

<svg xmlns="http://www.w3.org/2000/svg" width="16" height="16" version="1.1">
 <defs>
  <style id="current-color-scheme" type="text/css">
   .ColorScheme-Text { color:#444444; } .ColorScheme-Highlight { color:#4285f4; }
  </style>
 </defs>
 <path style="fill:currentColor" class="ColorScheme-Text" d="M 0,2 V 14 H 10 V 4 C 10,2 8,2 8,2 Z M 10,2 C 10,2 11,2 11,4 V 14 H 12 V 4 C 12,2 10,2 10,2 Z M 12,2 C 12,2 13,2 13,4 V 14 H 14 V 4 C 14,2 12,2 12,2 Z M 3,5 7.5,8 3,11 Z"/>
</svg>
